assets/images/afrikons/home-outline.svg

<svg viewBox="0 0 50 50" xmlns="http://www.w3.org/2000/svg"><path d="m0 0h50v50h-50z" fill="none"/><path d="m43.63 21.46-18-13.83v-1.29a1.09 1.09 0 0 0 .52-1l-.51-4.79a.65.65 0 0 0 -1.28 0l-.56 4.76a1.09 1.09 0 0 0 .52 1v1.34l-17.92 13.81a13 13 0 0 0 -5.47 11.38 1.62 1.62 0 0 0 1.14 1.56 2.13 2.13 0 0 0 2.31-.74c.36-.46.44-.58.48-.63a2.42 2.42 0 0 1 1.2-.94v16.43a1.48 1.48 0 0 0 1.48 1.48h13.78a1.58 1.58 0 0 0 1.58-1.58v-8.75a.27.27 0 0 1 .27-.27h3.66a.27.27 0 0 1 .27.27v8.75a1.59 1.59 0 0 0 1.59 1.58h13.79a1.48 1.48 0 0 0 1.52-1.48v-16.43a2.42 2.42 0 0 1 1.2.94l.41.61a1.88 1.88 0 0 0 2.15.78 1.9 1.9 0 0 0 1.38-1.86 14.13 14.13 0 0 0 -5.51-11.1zm-18.63-18.86.33 2.81c0 .11-.1.2-.21.23h-.12-.12c-.12 0-.22-.12-.21-.23zm22.34 30.57a.59.59 0 0 1 -.68-.25l-.41-.62a3.66 3.66 0 0 0 -2.25-1.55 1.07 1.07 0 0 0 -.94.21 1.11 1.11 0 0 0 -.43.88v16.68a.17.17 0 0 1 -.17.17h-13.77a.27.27 0 0 1 -.27-.27v-8.75a1.59 1.59 0 0 0 -1.59-1.58h-3.66a1.59 1.59 0 0 0 -1.59 1.58v8.75a.27.27 0 0 1 -.26.27h-13.78a.18.18 0 0 1 -.17-.17v-16.68a1.14 1.14 0 0 0 -.43-.84 1.07 1.07 0 0 0 -.93-.2 3.68 3.68 0 0 0 -2.24 1.5c0 .08-.24.32-.42.55a.83.83 0 0 1 -.87.31c-.12 0-.23-.1-.25-.4a11.74 11.74 0 0 1 5-10.26l17.62-13.6h.32l17.66 13.6a12.82 12.82 0 0 1 5 10.06.61.61 0 0 1 -.49.61z" fill="#0a0a0a"/></svg>

<svg xmlns="http://www.w3.org/2000/svg" viewBox="0 0 50 50"><defs><style>.cls-1{fill:none;}.cls-2{fill:#0a0a0a;}</style></defs><title>home-outline</title><g id="Layer_2" data-name="Layer 2"><g id="Layer_1-2" data-name="Layer 1"><rect class="cls-1" width="50" height="50"/><path class="cls-2" d="M43.63,21.46l-18-13.83V6.34a1.09,1.09,0,0,0,.52-1L25.64.55a.65.65,0,0,0-1.28,0L23.8,5.31a1.09,1.09,0,0,0,.52,1V7.65L6.4,21.46A13,13,0,0,0,.93,32.84,1.62,1.62,0,0,0,2.07,34.4a2.13,2.13,0,0,0,2.31-.74c.36-.46.44-.58.48-.63a2.42,2.42,0,0,1,1.2-.94V48.52A1.48,1.48,0,0,0,7.54,50H21.32a1.58,1.58,0,0,0,1.58-1.58V39.67a.27.27,0,0,1,.27-.27h3.66a.27.27,0,0,1,.27.27v8.75A1.59,1.59,0,0,0,28.69,50H42.48A1.48,1.48,0,0,0,44,48.52V32.09a2.42,2.42,0,0,1,1.2.94l.41.61a1.88,1.88,0,0,0,2.15.78,1.9,1.9,0,0,0,1.38-1.86A14.13,14.13,0,0,0,43.63,21.46ZM25,2.6l.33,2.81c0,.11-.1.2-.21.23l-.12,0-.12,0c-.12,0-.22-.12-.21-.23ZM47.34,33.17a.59.59,0,0,1-.68-.25l-.41-.62A3.66,3.66,0,0,0,44,30.75a1.07,1.07,0,0,0-.94.21,1.11,1.11,0,0,0-.43.88V48.52a.17.17,0,0,1-.17.17H28.69a.27.27,0,0,1-.27-.27V39.67a1.59,1.59,0,0,0-1.59-1.58H23.17a1.59,1.59,0,0,0-1.59,1.58v8.75a.27.27,0,0,1-.26.27H7.54a.18.18,0,0,1-.17-.17V31.84A1.14,1.14,0,0,0,6.94,31a1.07,1.07,0,0,0-.93-.2A3.68,3.68,0,0,0,3.77,32.3c0,.08-.24.32-.42.55a.83.83,0,0,1-.87.31c-.12,0-.23-.1-.25-.4a11.74,11.74,0,0,1,5-10.26L24.85,8.9h.32L42.83,22.5a12.82,12.82,0,0,1,5,10.06A.61.61,0,0,1,47.34,33.17Z"/></g></g></svg>
